newicons/ned_comics.svg

<svg xmlns="http://www.w3.org/2000/svg" xml:space="preserve" width="48" height="48"><path fill="none" stroke="#fff" stroke-linecap="round" stroke-linejoin="round" d="M9.5 5.5h29c2.216 0 4 1.784 4 4v29c0 2.216-1.784 4-4 4h-29c-2.216 0-4-1.784-4-4v-29c0-2.216 1.784-4 4-4m1.636 25.506 5.513-2.568 2.544 5.462-5.512 2.569zM8.656 24l-3.003 4.22M17.993 24 24 36.816m0 1.003-9.594 4.597m-8.904-9.612 4.505 9.611M6.699 29.303l6.145 13.112m15.232-2.928V27.476h3.527c3.787 0 6.857 2.352 6.857 5.255v1.501c0 2.902-3.07 5.255-6.857 5.255zm9.11-18.54H29.35V8.936h7.836M29.35 14.94h5.109M9.452 20.947V8.936l10.383 12.01V8.937M42.499 24h-37m18.5 18.417V5.583m-6.238 18.419L6.698 29.303l-1.101.529" class="cls-1"/></svg>

<?xml version="1.0" encoding="UTF-8"?><svg id="a" xmlns="http://www.w3.org/2000/svg" viewBox="0 0 48 48"><defs><style>.b{fill:none;stroke:#fff;stroke-linecap:round;stroke-linejoin:round;}</style></defs><path class="b" d="M11.137,31.006l5.513-2.568,2.544,5.462-5.512,2.569-2.545-5.463ZM8.657,24l-3.003,4.22M17.994,24l6.007,12.816M24.001,37.819l-9.594,4.597M5.503,32.804l4.505,9.611M6.7,29.303l6.145,13.112M28.077,39.487v-12.011h3.527c3.787,0,6.857,2.352,6.857,5.255v1.501c0,2.902-3.07,5.255-6.857,5.255h-3.527ZM37.187,20.947h-7.836v-12.011h7.836M29.351,14.94h5.109M9.453,20.947v-12.011l10.383,12.01v-12.009M42.5,24H5.5M24,42.417V5.583M17.762,24.002l-11.063,5.301-1.101.529"/><rect class="b" x="5.5" y="5.5" width="37" height="37" rx="4" ry="4"/></svg>
